X: 200
T:A Nation Once Again
M:2/4
L:1/8
K:A 
E2 FG|A2 GA|c3B|A2 G2|F2 B2|AG FG|B2 A2 -|A2 E2|E2 FG|A2 GA|c3B|A2 G2|
F2 B2|AG FG|F2 E2 -|E2 E2|E2 F2|G3A|B2 E2|E3E|F3G|A2 B2|c4 -|c2 AG|
F2 F2|d3c|B2 A2|G3F|E2 c2|B3A|A4 -|A2 E2|c3B|A2 G2|F4 -|F2 F2|
d3c|B2 A2|G4 -|G2 F2|E2 FG|A2 GA|F2 B2|G2 AB|c2 d2|B3A|A4 -|A2||
